X:1
T:The Gospel Bells
T:Samuel Wesley Martin, 1877
T:The Gospel Bells
T:Public Domain
T:Public Domain
T:Public Domain
C:Samuel Wesley Martin, 1877
Z:Public Domain
%%score ( 1 2 ) ( 3 4 )
L:1/8
M:4/4
K:F
V:1 treble 
V:2 treble 
V:3 bass 
V:4 bass 
V:1
 C2 | [CF]2 [CF]2 [CF]2 [FA]2 | [Fd]2 [Fc]4 [Fc][Fc] | [Fd]2 [Fc]2 F2 [EG]2 | [FA]6 [FA][Ac] | %5
w: 1.~The|pel bells are ring-|ing, O- ver land,|from sea to sea:|èd news of|
w: 2.~The|pel bells in- vite|us To a feast|pre- pared for all;|not slight the|
w: 3.~The|pel bells give warn-|ing, As they sound|from day to day,|the fate which|
w: 4.~The|pel bells are joy-|ful, As they e-|cho far and wide,|ing notes of|
 [GB]2 [EG]2 [FA]2 [CF]2 | [EG]2 [Ec]4 [Ec][Ec] | [Ge]2 [Fd]2 [Ec]2 [D=B]2 | [Ec]6 C2 | %9
w: free sal- va- tion|Do they of- fer|you and me. “For|God so|
w: in- vi- ta- tion,|Nor re- ject the|gra- cious call. “I|am the|
w: doth a- wait them|Who for- ev- er|will de- lay. “Es-|cape ye,|
w: per- fect par- don,|Thro’ a Sav- ior|cru- ci- fied. “Good|tid- ings|
 [CF]2 [CF]2 [DF]2 [DF]2 | [CF]6 F[FA] | [EG]2 [EG]2 [DG]2 [DG]2 | [EG]6 [EA][EG] | %13
w: the world That His|on- ly Son|gave; Who- so- e’er|be- liev- eth|
w: of life; Eat of|Me, thou hun-|soul; Tho’ your sins|be red as|
w: thy life; Tar- ry|not in all|plain, Nor be- hind|thee look, oh,|
w: great joy To all|peo- ple do|bring, Un- to you|is born a|
 [DF]2 [DF]2 [_EF]2 [EF]2 | [DF]2 [DF]4 [DF][FG] | [FA]2 [GB]2 [FA]2 [EG]2 | F6 ||"^Refrain" A>F | %18
w: in Him Ev- er-|last- ing life shall|have.” * * *|||
w: crim- son, They shall|be as white as|wool.” Gos- pel bells,|how|ring; O-|
w: ne- ver, Lest thou|be con- sumed in|pain.” * * *|||
w: Sav- ior, Which is|Christ the Lord and|King.” * * *|||
 (z2 E>F G2) B>G | z2 F>G A2 [Fc][Fc] | [Fd]2 [Fc]2 F2 [EG]2 | [FA]6 A>F | (z2 E>F G2) c>A | %23
w: |||||
w: * * * ver land|* * * sea to|* Gos- pel bells|ly bring Bless-|* * * èd news|
w: |||||
w: |||||
 (z2 F>G A2) F[EG] | [FA]2 (cB) [FA]2 [EG]2 | F6 |] %26
w: |||
w: * * * you and|||
w: |||
w: |||
V:2
 C2 | x8 | x8 | x4 F2 x2 | x8 | x8 | x8 | x8 | x6 C2 | x8 | x6 F x | x8 | x8 | x8 | x8 | x8 | F6 || %17
w: Gos-|||Bless-|||||loved||He|||||||
w: Gos-|||Do|||||Bread||gry||||||they|
w: Gos-|||Of|||||for||the|||||||
w: Gos-|||Bear-|||||of||I|||||||
 x2 | c6 x2 | c6 x2 | x4 F2 x2 | x8 | c6 x2 | (f6 F) x | x2 G2 x4 | F6 |] %26
w: |||||||||
w: |from|sea;|free-||to|me. *|||
w: |||||||||
w: |||||||||
V:3
 C,2 | [F,A,]2 [F,A,]2 [F,A,]2 [F,C]2 | [F,C]2 [F,A,]4 [F,A,][F,A,] | %3
w: ~|~ ~ ~ ~|~ ~ ~ ~|
 [F,B,]2 [F,A,]2 [D,A,]2 [C,C]2 | [F,C]6 [F,C][F,C] | [C,C]2 [C,C]2 [F,C]2 [F,A,]2 | %6
w: ~ ~ ~ ~|~ ~ ~|~ ~ ~ ~|
 [C,C]2 [C,G,]4 [C,C][C,C] | [C,C]2 [F,A,]2 G,2 [G,,G,]2 | [C,G,]6 [C,C]2 | %9
w: ~ ~ ~ ~|~ ~ ~ ~|~ ~|
 [F,A,]2 [F,A,]2 [B,,B,]2 [B,,B,]2 | [F,A,]6 [A,C][F,C] | [C,C]2 [C,C]2 [G,,=B,]2 [G,,B,]2 | %12
w: ~ ~ ~ ~|~ ~ ~|~ ~ ~ ~|
 [C,C]6 [C,C][C,B,] | [D,A,]2 [D,A,]2 [C,A,]2 [C,A,]2 | [B,,B,]2 [B,,B,]4 [B,,B,][B,,D] | %15
w: ~ ~ ~|~ ~ ~ ~|~ ~ ~ ~|
 [F,C]2 [B,,D]2 [C,C]2 [C,B,]2 | [F,A,]6 || z2 | z2 [C,G,]>[C,A,] [C,B,]2 z2 | %19
w: ~ ~ ~ Gos-|pel||bells, ~ ~|
 z2 [F,A,]>[F,B,] [F,C]2 [F,A,][F,A,] | [F,B,]2 [F,A,]2 [D,A,]2 [C,C]2 | [F,C]6 z2 | %22
w: ~ ~ ~ ~ ~|~ ~ ~ Gos-|pel|
 z2 [C,G,]>[C,A,] [C,B,]2 z2 | z2 [F,A,]>[F,B,] [F,C]2 [A,,C][C,C] | %24
w: bells * *||
 [F,C]2 [B,,D]2 [C,C]2 [C,B,]2 | [F,A,]6 |] %26
w: ||
V:4
 C,2 | x8 | x8 | x8 | x8 | x8 | x8 | x4 G,2 x2 | x8 | x8 | x8 | x8 | x8 | x8 | x8 | x8 | x6 || x2 | %18
w: ~|||||||~|||||||||||
 x8 | x8 | x8 | x8 | x8 | x8 | x8 | x6 |] %26
w: ||||||||

